X:1
T:Sarat:oga -- Reel
R:reel
B:Ryan's Mammoth Collection
Z:Contributed by Ray Davies,  ray:davies99.freeserve.co.uk
M:2/4
L:1/16
K:A
vcd|e^def edcB|Aaga e2c2|d2fe dcBA|GABG E2cd|
e^def edcB|Aaga e2c2|dfed cBAG|A2A2A2H::
GA|BE~E2 BEdE|cE~E2 cEeE|BE~E2 BEdE|cAEC A,2c2|
BE~E2 BEdB|cE~E2 cEec|dfed cBAG|A2A2A2:|
